airbyte-config/init/src/main/resources/icons/square.svg

<?xml version="1.0" encoding="UTF-8" standalone="no"?>
<svg
   width="22.001101"
   height="22"
   viewBox="0 0 22.001101 22"
   fill="none"
   version="1.1"
   id="svg18"
   sodipodi:docname="square.svg"
   inkscape:version="1.2.1 (9c6d41e410, 2022-07-14, custom)"
   xmlns:inkscape="http://www.inkscape.org/namespaces/inkscape"
   xmlns:sodipodi="http://sodipodi.sourceforge.net/DTD/sodipodi-0.dtd"
   xmlns="http://www.w3.org/2000/svg"
   xmlns:svg="http://www.w3.org/2000/svg">
  <defs
     id="defs22" />
  <sodipodi:namedview
     id="namedview20"
     pagecolor="#ffffff"
     bordercolor="#666666"
     borderopacity="1.0"
     inkscape:showpageshadow="2"
     inkscape:pageopacity="0.0"
     inkscape:pagecheckerboard="0"
     inkscape:deskcolor="#d1d1d1"
     showgrid="false"
     inkscape:zoom="15.420455"
     inkscape:cx="43.967576"
     inkscape:cy="11.024318"
     inkscape:window-width="3840"
     inkscape:window-height="2083"
     inkscape:window-x="0"
     inkscape:window-y="40"
     inkscape:window-maximized="1"
     inkscape:current-layer="svg18" />
  <path
     fill-rule="evenodd"
     clip-rule="evenodd"
     d="M 3.6761,1.5484933e-7 H 18.3239 C 19.299,-2.82679e-4 20.2344,0.386894 20.924,1.07633 21.6136,1.76576 22.0011,2.70095 22.0011,3.6761 V 18.3228 C 22.0011,20.3537 20.3547,22 18.3239,22 H 3.6761 C 1.64567,21.9994 0,20.3533 0,18.3228 V 3.6761 C 0,1.64584 1.64584,1.5484933e-7 3.6761,1.5484933e-7 Z M 16.8434,18.0005 c 0.6408,0 1.1603,-0.5195 1.1603,-1.1603 L 18.0005,5.16083 c 0,-0.64079 -0.5195,-1.16025 -1.1603,-1.16025 H 5.1619 C 4.854,4.00058 4.55872,4.12297 4.3411,4.34079 4.12348,4.55861 4.00137,4.854 4.00165,5.1619 v 11.6783 c 0,0.6408 0.51946,1.1603 1.16025,1.1603 z"
     fill="#3e4348"
     id="path2" />
  <path
     d="M 8.66615,13.9828 C 8.30039,13.9799 8.00543,13.6826 8.00544,13.3168 V 8.65442 c -8.5e-4,-0.1772 0.06894,-0.34744 0.19395,-0.47304 0.125,-0.1256 0.2949,-0.19621 0.4721,-0.19621 h 4.66881 c 0.1771,2.8e-4 0.3468,0.07098 0.4718,0.19652 0.1249,0.12555 0.1948,0.29562 0.1942,0.47273 v 4.66128 c 6e-4,0.1771 -0.0693,0.3472 -0.1942,0.4727 -0.125,0.1256 -0.2947,0.1963 -0.4718,0.1966 z"
     fill="#3e4348"
     id="path4" />
</svg>

<svg width="88" height="22" viewBox="0 0 88 22" fill="none" xmlns="http://www.w3.org/2000/svg">
<path fill-rule="evenodd" clip-rule="evenodd" d="M3.6761 1.54849e-07H18.3239C19.299 -0.000282679 20.2344 0.386894 20.924 1.07633C21.6136 1.76576 22.0011 2.70095 22.0011 3.6761V18.3228C22.0011 20.3537 20.3547 22 18.3239 22H3.6761C1.64567 21.9994 0 20.3533 0 18.3228V3.6761C0 1.64584 1.64584 1.54849e-07 3.6761 1.54849e-07ZM16.8434 18.0005C17.4842 18.0005 18.0037 17.481 18.0037 16.8402L18.0005 5.16083C18.0005 4.52004 17.481 4.00058 16.8402 4.00058H5.1619C4.854 4.00058 4.55872 4.12297 4.3411 4.34079C4.12348 4.55861 4.00137 4.854 4.00165 5.1619V16.8402C4.00165 17.481 4.52111 18.0005 5.1619 18.0005H16.8434Z" fill="#3E4348"/>
<path d="M8.66615 13.9828C8.30039 13.9799 8.00543 13.6826 8.00544 13.3168V8.65442C8.00459 8.47722 8.07438 8.30698 8.19939 8.18138C8.32439 8.05578 8.49429 7.98517 8.67149 7.98517H13.3403C13.5174 7.98545 13.6871 8.05615 13.8121 8.18169C13.937 8.30724 14.0069 8.47731 14.0063 8.65442V13.3157C14.0069 13.4928 13.937 13.6629 13.8121 13.7884C13.6871 13.914 13.5174 13.9847 13.3403 13.985L8.66615 13.9828Z" fill="#3E4348"/>
<path d="M33.1959 10.0196C32.5149 9.83388 31.8702 9.65883 31.3696 9.43575C30.4431 9.0216 30.0119 8.44734 30.0119 7.62972C30.0119 6.08414 31.5062 5.3882 32.9942 5.3882C34.4084 5.3882 35.6434 5.97313 36.4728 7.03412L36.5293 7.1067L37.7248 6.17167L37.6672 6.09908C36.5646 4.69653 34.9315 3.92801 33.0667 3.92801C31.8254 3.92801 30.6875 4.26317 29.8646 4.87265C28.9381 5.55044 28.4492 6.53351 28.4492 7.70657C28.4492 10.4338 31.0173 11.0987 33.0817 11.6335C35.1706 12.1843 36.4504 12.6027 36.4504 14.1952C36.4504 15.7632 35.1823 16.7762 33.2204 16.7762C32.2502 16.7762 30.4538 16.519 29.3245 14.7941L29.2722 14.7129L28.0148 15.6234L28.0639 15.6971C29.1313 17.3131 30.9736 18.2407 33.1244 18.2407C36.0458 18.2407 38.0098 16.5915 38.0098 14.1387C38.0098 11.3314 35.3392 10.6045 33.1959 10.0196Z" fill="#3E4348"/>
<path fill-rule="evenodd" clip-rule="evenodd" d="M47.5395 9.45282V7.97662H48.9452V21.9979H47.5395V16.52C46.7368 17.6205 45.5328 18.2225 44.1174 18.2225C41.4447 18.2225 39.5767 16.0824 39.5767 12.9923C39.5767 9.90219 41.4489 7.745 44.1174 7.745C45.5232 7.745 46.7272 8.35021 47.5395 9.45282ZM41.0583 12.9752C41.0583 15.8358 42.6967 16.8552 44.2305 16.8552L44.2337 16.8562C46.2415 16.8562 47.5395 15.3192 47.5395 12.9752C47.5395 10.6312 46.2394 9.11552 44.2305 9.11552C41.8919 9.11552 41.0583 11.1094 41.0583 12.9752Z" fill="#3E4348"/>
<path d="M58.239 7.97662V13.511C58.239 15.4484 56.9122 16.8552 55.0848 16.8552C53.567 16.8552 52.8284 15.9543 52.8284 14.1024V7.97662H51.4226V14.3895C51.4226 16.7911 52.728 18.2246 54.914 18.2246C56.276 18.2246 57.4459 17.6472 58.24 16.5915V17.9962H59.6458V7.97662H58.239Z" fill="#3E4348"/>
<path fill-rule="evenodd" clip-rule="evenodd" d="M62.293 9.02907C63.3294 8.21465 64.7362 7.7482 66.1505 7.7482C68.3846 7.7482 69.7177 8.85935 69.7135 10.723V17.9984H68.3067V16.8872C67.5968 17.7763 66.57 18.2268 65.2486 18.2268C63.0956 18.2268 61.7571 17.0494 61.7571 15.1559C61.7571 12.6934 64.0776 12.307 65.0661 12.1426C65.2272 12.116 65.3937 12.0904 65.5601 12.0647L65.5603 12.0647L65.5663 12.0638C66.9168 11.8559 68.3109 11.6414 68.3109 10.4957C68.3109 9.19878 66.6276 9.09845 66.1121 9.09845C65.2016 9.09845 63.9154 9.3685 63.0412 10.1263L62.9612 10.1957L62.2268 9.08137L62.293 9.02907ZM63.2248 15.0769C63.2248 16.6823 64.7362 16.8562 65.3863 16.8562H65.3873C66.8006 16.8562 68.3131 16.1027 68.3099 13.985V12.5354C67.6242 12.9685 66.6483 13.1377 65.7778 13.2886L65.7631 13.2912L65.3265 13.3691C63.9325 13.6274 63.2248 13.9604 63.2248 15.0769Z" fill="#3E4348"/>
<path d="M77.8577 8.16554C77.5236 7.92752 76.9974 7.78555 76.4487 7.78555C75.3213 7.80037 74.2664 8.34386 73.5998 9.25322V7.97235H72.1941V17.9909H73.5998V12.6326C73.5998 10.2566 74.9352 9.19237 76.2576 9.19237C76.6447 9.1872 77.0279 9.26852 77.3795 9.4304L77.4745 9.48057L77.9196 8.20611L77.8577 8.16554Z" fill="#3E4348"/>
<path fill-rule="evenodd" clip-rule="evenodd" d="M78.2697 13.0136C78.2697 9.91394 80.2027 7.7482 82.9662 7.7482C85.6282 7.7482 87.4887 9.67057 87.4834 12.4276C87.4826 12.6673 87.4694 12.9067 87.4439 13.1449L87.4353 13.2271H79.7501C79.7853 15.4334 81.1132 16.8562 83.1508 16.8562C84.3186 16.8562 85.3304 16.3813 85.9997 15.5177L86.0605 15.4388L87.0788 16.346L87.0223 16.4143C86.3455 17.2394 85.1116 18.2236 83.0729 18.2236C80.2016 18.2236 78.2697 16.1304 78.2697 13.0136ZM82.9277 9.09738C81.2103 9.09738 79.9924 10.2277 79.8024 11.9879H85.9976C85.8759 10.5725 85.0113 9.09738 82.9277 9.09738Z" fill="#3E4348"/>
</svg>
